static/logos/okta-wordmark-color.svg

<svg width="50" height="17" viewBox="0 0 50 17" fill="none" xmlns="http://www.w3.org/2000/svg">
<g clip-path="url(#clip0_1_1823)">
<path d="M6.2875 4.22498C2.8125 4.22498 0 7.03748 0 10.5125C0 13.9875 2.8125 16.8 6.2875 16.8C9.7625 16.8 12.575 13.9875 12.575 10.5125C12.575 7.03748 9.7625 4.22498 6.2875 4.22498ZM6.2875 13.6625C4.55 13.6625 3.1375 12.25 3.1375 10.5125C3.1375 8.77498 4.55 7.36248 6.2875 7.36248C8.025 7.36248 9.4375 8.77498 9.4375 10.5125C9.4375 12.25 8.025 13.6625 6.2875 13.6625Z" fill="#00297A"/>
<path d="M17.3406 12.625C17.3406 12.125 17.9406 11.8875 18.2906 12.2375C19.8656 13.8375 22.4656 16.5875 22.4781 16.6C22.5156 16.6375 22.5531 16.7 22.7031 16.75C22.7656 16.775 22.8656 16.775 22.9781 16.775H25.8156C26.3281 16.775 26.4781 16.1875 26.2406 15.8875L21.5406 11.075L21.2906 10.825C20.7531 10.1875 20.8156 9.9375 21.4281 9.2875L25.1531 5.125C25.3906 4.825 25.2406 4.25 24.7156 4.25H22.1406C22.0406 4.25 21.9656 4.25 21.8906 4.275C21.7406 4.325 21.6781 4.375 21.6406 4.425C21.6281 4.4375 19.5656 6.6625 18.2906 8.025C17.9406 8.4 17.3156 8.15 17.3156 7.6375V0.5C17.3156 0.1375 17.0156 0 16.7781 0H14.6781C14.3156 0 14.1406 0.2375 14.1406 0.45V16.275C14.1406 16.6375 14.4406 16.7375 14.6906 16.7375H16.7906C17.1156 16.7375 17.3281 16.5 17.3281 16.2625V16.1V12.625H17.3406Z" fill="#00297A"/>
<path d="M34.4859 16.2L34.2609 14.1C34.2359 13.8125 33.9609 13.6125 33.6734 13.6625C33.5109 13.6875 33.3484 13.7 33.1859 13.7C31.5109 13.7 30.1484 12.3875 30.0484 10.725C30.0484 10.675 30.0484 10.6125 30.0484 10.55V7.975C30.0484 7.6375 30.2984 7.3625 30.6359 7.3625H33.4484C33.6484 7.3625 33.9484 7.1875 33.9484 6.825V4.8375C33.9484 4.45 33.6984 4.25 33.4734 4.25H30.6359C30.3109 4.25 30.0484 4.0125 30.0359 3.6875V0.5C30.0359 0.3 29.8859 0 29.4984 0H27.4109C27.1484 0 26.8984 0.1625 26.8984 0.4875C26.8984 0.4875 26.8984 10.675 26.8984 10.725C26.9859 14.125 29.7734 16.8375 33.1859 16.8375C33.4734 16.8375 33.7484 16.8125 34.0234 16.775C34.3234 16.7375 34.5234 16.4875 34.4859 16.2Z" fill="#00297A"/>
<path d="M49.6375 13.5625C47.8625 13.5625 47.5875 12.925 47.5875 10.5375C47.5875 10.525 47.5875 10.525 47.5875 10.5125V4.77502C47.5875 4.57502 47.4375 4.23752 47.0375 4.23752H44.9375C44.675 4.23752 44.3875 4.45002 44.3875 4.77502V5.03752C43.475 4.51252 42.4125 4.21252 41.2875 4.21252C37.8125 4.21252 35 7.02502 35 10.5C35 13.975 37.8125 16.7875 41.2875 16.7875C42.85 16.7875 44.275 16.2125 45.375 15.275C45.9625 16.175 46.9125 16.775 48.4 16.7875C48.65 16.7875 50 16.8375 50 16.2V13.9625C50 13.775 49.85 13.5625 49.6375 13.5625ZM41.3 13.6625C39.5625 13.6625 38.15 12.25 38.15 10.5125C38.15 8.77502 39.5625 7.36252 41.3 7.36252C43.0375 7.36252 44.45 8.77502 44.45 10.5125C44.4375 12.25 43.025 13.6625 41.3 13.6625Z" fill="#00297A"/>
</g>
<defs>
<clipPath id="clip0_1_1823">
<rect width="50" height="16.875" fill="white"/>
</clipPath>
</defs>
</svg>

<svg xmlns="http://www.w3.org/2000/svg" width="188.235" height="64" fill="none" viewBox="0 0 50 17"><g fill="#00297A" clip-path="url(#a)"><path d="M6.287 4.225A6.284 6.284 0 0 0 0 10.512 6.284 6.284 0 0 0 6.287 16.8a6.284 6.284 0 0 0 6.288-6.288 6.284 6.284 0 0 0-6.287-6.287Zm0 9.438a3.153 3.153 0 0 1-3.15-3.15 3.153 3.153 0 0 1 3.15-3.15 3.153 3.153 0 0 1 3.15 3.15 3.153 3.153 0 0 1-3.15 3.15ZM17.34 12.625c0-.5.6-.738.95-.387 1.576 1.6 4.176 4.35 4.188 4.362.038.037.075.1.225.15a.855.855 0 0 0 .275.025h2.838c.512 0 .662-.587.425-.887l-4.7-4.813-.25-.25c-.538-.637-.475-.887.137-1.537l3.725-4.163c.238-.3.088-.875-.437-.875H22.14c-.1 0-.175 0-.25.025-.15.05-.213.1-.25.15-.013.013-2.075 2.237-3.35 3.6a.563.563 0 0 1-.975-.388V.5c0-.362-.3-.5-.538-.5h-2.1c-.362 0-.537.237-.537.45v15.825c0 .363.3.463.55.463h2.1c.325 0 .537-.238.537-.476v-3.637h.013ZM34.486 16.2l-.225-2.1a.499.499 0 0 0-.588-.438 3.15 3.15 0 0 1-3.625-2.938V7.976c0-.337.25-.612.588-.612h2.812c.2 0 .5-.176.5-.538V4.838c0-.388-.25-.588-.475-.588h-2.837a.585.585 0 0 1-.6-.563V.5c0-.2-.15-.5-.538-.5h-2.087c-.263 0-.513.163-.513.487v10.238c.088 3.4 2.875 6.112 6.288 6.112.287 0 .562-.024.837-.062.3-.037.5-.287.463-.575ZM49.638 13.563c-1.776 0-2.05-.638-2.05-3.026V4.775c0-.2-.15-.537-.55-.537h-2.1c-.263 0-.55.212-.55.537v.263a6.207 6.207 0 0 0-3.1-.825A6.284 6.284 0 0 0 35 10.5a6.284 6.284 0 0 0 10.375 4.775c.587.9 1.538 1.5 3.025 1.513.25 0 1.6.05 1.6-.588v-2.237c0-.188-.15-.4-.362-.4Zm-8.338.1a3.153 3.153 0 0 1-3.15-3.15 3.153 3.153 0 0 1 3.15-3.15 3.153 3.153 0 0 1 3.15 3.15c-.013 1.737-1.425 3.15-3.15 3.15Z"/></g><defs><clipPath id="a"><path fill="#fff" d="M0 0h50v16.875H0z"/></clipPath></defs></svg>
